assets/images/Calendar.svg

<?xml version="1.0" encoding="utf-8"?>
<!-- Generator: Adobe Illustrator 18.1.1, SVG Export Plug-In . SVG Version: 6.00 Build 0)  -->
<!DOCTYPE svg PUBLIC "-//W3C//DTD SVG 1.1//EN" "http://www.w3.org/Graphics/SVG/1.1/DTD/svg11.dtd">
<svg version="1.1" id="Layer_1" xmlns="http://www.w3.org/2000/svg" xmlns:xlink="http://www.w3.org/1999/xlink" x="0px" y="0px"
	 viewBox="0 0 100 100" enable-background="new 0 0 100 100" xml:space="preserve">
<path d="M5,6v22v66h90V28V6H5z M92,91H8V28h84V91z M24,68.8L37.2,57c0.7-0.6,1.4-1.3,2-2c0.7-0.8,1-1.6,1-2.7c0-1.1-0.4-2-1.2-2.7
	c-0.8-0.6-1.8-1-2.9-1c-1.3,0-2.4,0.4-3.1,1.2c-0.7,0.8-1.2,1.8-1.3,3l-7.1-0.5c0.1-1.7,0.5-3.3,1.1-4.5c0.6-1.3,1.5-2.4,2.5-3.2
	s2.3-1.5,3.7-1.9c1.4-0.4,2.9-0.6,4.6-0.6c1.5,0,3,0.2,4.3,0.6c1.3,0.4,2.5,1.1,3.5,1.9c1,0.8,1.8,1.9,2.3,3.2
	c0.6,1.3,0.8,2.7,0.8,4.4c0,1.1-0.1,2.1-0.3,2.9c-0.2,0.9-0.5,1.7-0.9,2.4c-0.4,0.7-0.9,1.4-1.4,2c-0.5,0.6-1.1,1.2-1.8,1.7L32.7,70
	H48v6H24V68.8z M60,56h2.6c0.7,0,1.3-0.1,2-0.2c0.6-0.1,1.2-0.3,1.7-0.6c0.5-0.3,0.9-0.7,1.3-1.2c0.3-0.5,0.5-1.1,0.5-1.9
	c0-1-0.4-1.9-1.2-2.5c-0.8-0.7-1.8-1-3-1c-1.1,0-2,0.3-2.8,0.9c-0.7,0.6-1.2,1.3-1.4,2.2l-7.9-1.6c0.4-1.5,1-2.7,1.7-3.7
	c0.8-1,1.7-1.9,2.7-2.5c1-0.6,2.2-1.1,3.5-1.4c1.3-0.3,2.6-0.5,4.1-0.5c1.5,0,2.9,0.2,4.3,0.5c1.4,0.4,2.6,0.9,3.6,1.7
	c1,0.8,1.9,1.8,2.5,2.9c0.6,1.2,0.9,2.6,0.9,4.2c0,1.9-0.7,3.5-1.7,4.8c-1,1.3-2.5,2.2-4.5,2.6V59c1,0.1,2.1,0.4,2.9,0.9
	s1.5,1.1,2.1,1.8c0.5,0.7,1,1.5,1.3,2.4c0.3,0.9,0.5,1.8,0.5,2.8c0,1.7-0.3,3.2-1,4.4c-0.7,1.3-1.5,2.3-2.6,3.2s-2.4,1.5-3.9,1.9
	s-3,0.6-4.7,0.6c-3,0-5.6-0.7-7.8-2.1c-2.2-1.4-3.6-3.6-4.3-6.6l7.5-1.8c0.3,1.2,0.8,2.2,1.5,2.9c0.8,0.7,1.9,1,3.5,1
	c1.6,0,2.7-0.4,3.5-1.2c0.7-0.8,1.1-1.8,1.1-3.1c0-1-0.2-1.7-0.6-2.2c-0.4-0.5-0.9-0.9-1.5-1.2c-0.6-0.3-1.3-0.5-2.1-0.5
	c-0.8,0-1.6-0.1-2.4-0.1H60V56z M23.5,16.9c0,1.7-1.4,3.1-3.1,3.1s-3.1-1.4-3.1-3.1c0-1.7,1.4-3.1,3.1-3.1S23.5,15.2,23.5,16.9z
	 M82.5,16.9c0,1.7-1.4,3.1-3.1,3.1c-1.7,0-3.1-1.4-3.1-3.1c0-1.7,1.4-3.1,3.1-3.1C81.1,13.8,82.5,15.2,82.5,16.9z"/>
</svg>

<?xml version="1.0" encoding="UTF-8" standalone="no"?>
<!DOCTYPE svg PUBLIC "-//W3C//DTD SVG 1.1//EN" "http://www.w3.org/Graphics/SVG/1.1/DTD/svg11.dtd">
<svg width="100%" height="100%" viewBox="0 0 100 100" version="1.1" xmlns="http://www.w3.org/2000/svg" xmlns:xlink="http://www.w3.org/1999/xlink" xml:space="preserve" style="fill-rule:evenodd;clip-rule:evenodd;stroke-linejoin:round;stroke-miterlimit:1.41421;">
    <path d="M5,6L5,94L95,94L95,28L95,6L5,6ZM92,91L8,91L8,28L92,28L92,91ZM23.5,16.9C23.5,18.6 22.1,20 20.4,20C18.7,20 17.3,18.6 17.3,16.9C17.3,15.2 18.7,13.8 20.4,13.8C22.1,13.8 23.5,15.2 23.5,16.9ZM82.5,16.9C82.5,18.6 81.1,20 79.4,20C77.7,20 76.3,18.6 76.3,16.9C76.3,15.2 77.7,13.8 79.4,13.8C81.1,13.8 82.5,15.2 82.5,16.9Z" style="fill:rgb(198,62,81);fill-rule:nonzero;"/>
    <g transform="matrix(0.756534,0,0,1,3.26548,-1.55846)">
        <rect x="12.87" y="34.041" width="20.813" height="14.985" style="fill:rgb(198,62,81);fill-opacity:0.25098;"/>
    </g>
    <g transform="matrix(0.756534,0,0,1,3.26548,16.9587)">
        <rect x="12.87" y="34.041" width="20.813" height="14.985" style="fill:rgb(198,62,81);fill-opacity:0.25098;"/>
    </g>
    <g transform="matrix(0.756534,0,0,1,3.26548,34.9512)">
        <rect x="12.87" y="34.041" width="20.813" height="14.985" style="fill:rgb(198,62,81);fill-opacity:0.25098;"/>
    </g>
    <g transform="matrix(0.756534,0,0,1,41.92,-1.55846)">
        <rect x="12.87" y="34.041" width="20.813" height="14.985" style="fill:rgb(198,62,81);fill-opacity:0.25098;"/>
    </g>
    <g transform="matrix(0.756534,0,0,1,41.92,16.9587)">
        <rect x="12.87" y="34.041" width="20.813" height="14.985" style="fill:rgb(198,62,81);fill-opacity:0.25098;"/>
    </g>
    <g transform="matrix(0.756534,0,0,1,41.92,34.9512)">
        <rect x="12.87" y="34.041" width="20.813" height="14.985" style="fill:rgb(198,62,81);fill-opacity:0.25098;"/>
    </g>
    <g transform="matrix(0.756534,0,0,1,22.5927,-1.55846)">
        <rect x="12.87" y="34.041" width="20.813" height="14.985" style="fill:rgb(198,62,81);fill-opacity:0.25098;"/>
    </g>
    <g transform="matrix(0.756534,0,0,1,22.5927,16.9587)">
        <rect x="12.87" y="34.041" width="20.813" height="14.985" style="fill:rgb(198,62,81);fill-opacity:0.25098;"/>
    </g>
    <g transform="matrix(0.756534,0,0,1,22.5927,34.9512)">
        <rect x="12.87" y="34.041" width="20.813" height="14.985" style="fill:rgb(198,62,81);fill-opacity:0.25098;"/>
    </g>
    <g transform="matrix(0.756534,0,0,1,61.2472,-1.55846)">
        <rect x="12.87" y="34.041" width="20.813" height="14.985" style="fill:rgb(198,62,81);fill-opacity:0.25098;"/>
    </g>
    <g transform="matrix(0.756534,0,0,1,61.2472,16.9587)">
        <rect x="12.87" y="34.041" width="20.813" height="14.985" style="fill:rgb(198,62,81);fill-opacity:0.25098;"/>
    </g>
</svg>
